icon-themes/sifr_svg/cmd/km/lc_underline.svg

<svg viewBox="0 0 24 24" xmlns="http://www.w3.org/2000/svg"><path d="m4.8867188 2-1.0800782 1.4707031-.5332031.734375c-.1824184.24-.2734375.4807031-.2734375.7207031 0 .25.1011143.5.3027344.75l.5761718.75 1.1210938 1.5742188v7c0 3.230001 2.1995203 5 7 5 4.800481 0 7-1.769999 7-5v-7l-4-3h4v-3h-5.011719l-1.080078 1.4707031-.533203.734375c-.153614.2-.230469.4052344-.230469.6152344 0 .28.149636.5654687.447266.8554687l.748047.75 1.660156 1.5742188v7c0 1.35-.964596 2-3 2-2.0354031 0-3-.65-3-2v-7l-3-3h4v-3zm-2.8867188 19v2h20v-2z" fill="#555753"/></svg>

<svg xmlns="http://www.w3.org/2000/svg" viewBox="0 0 24 24">
  <path
     style="fill:#555753"
     d="M 4.8867188 2 L 3.8066406 3.4707031 L 3.2734375 4.2050781 C 3.0910191 4.4450781 3 4.6857812 3 4.9257812 C 3 5.1757812 3.1011143 5.4257812 3.3027344 5.6757812 L 3.8789062 6.4257812 L 5 8 L 5 15 C 5 18.230001 7.1995203 20 12 20 C 16.800481 20 19 18.230001 19 15 L 19 8 L 15 5 L 19 5 L 19 2 L 13.988281 2 L 12.908203 3.4707031 L 12.375 4.2050781 C 12.221386 4.4050781 12.144531 4.6103125 12.144531 4.8203125 C 12.144531 5.1003125 12.294167 5.3857812 12.591797 5.6757812 L 13.339844 6.4257812 L 15 8 L 15 15 C 15 16.35 14.035404 17 12 17 C 9.9645969 17 9 16.35 9 15 L 9 8 L 6 5 L 10 5 L 10 2 L 4.8867188 2 z M 2 21 L 2 23 L 22 23 L 22 21 L 2 21 z "
     />
</svg>
